X:566
T:Flowers of Edinburgh #1, The
C:Joe Buchanan's Scottish Tome - Page 150.1
I:150 1
Z:Carl Allison
R:Reel
L:1/8
M:4/4
K:G
GE |: "G"D2 DE G2 GA | BGBd "Am"cBAG | "D7"FGFE DEFG | BFdF E2 "C"GE |
"G"D2 DE G2 GA | BGBd "C"efge | "G"dcBA "D7"GFGA |1 "G"B2 G2 G2 GE :|2 "G"B2 G2 G2 d2 |]
|: "G"g2 g2 gaag | "D7"f2 f2 "Em"faff | e2 ef gfed | B2 e2 e2 "C"ge |
"G"dBGB d2 d2 | "C"edef g2 "Edim"fe | "D7"dcBA GFGA |1 "G"B2 G2 G2 d2 :|2 "G"B2 G2 G2 "D7"F2 |]

